packages/foundations/assets/icons/functional/images/arrows/arrow_up_right_32.svg

<svg width="32" height="32" viewBox="0 0 32 32" fill="none" xmlns="http://www.w3.org/2000/svg">
<g clip-path="url(#clip0_77_520)">
<path fill-rule="evenodd" clip-rule="evenodd" d="M8.50053 22.4701C8.49831 22.2545 8.58008 22.0465 8.72853 21.8901L20.0845 10.4641H11.4945C11.0385 10.4641 10.4845 10.1741 10.4845 9.53012C10.4845 8.98312 10.9085 8.50012 11.4945 8.50012H22.4905C23.0105 8.50012 23.4995 8.88612 23.4995 9.33712V20.3451C23.4995 20.8931 23.0435 21.3431 22.4905 21.3431C21.9705 21.3431 21.4825 20.9571 21.4825 20.4741V11.8481L10.2255 23.2101C10.0818 23.3508 9.89961 23.4456 9.70194 23.4826C9.50427 23.5196 9.30008 23.497 9.11527 23.4177C8.93047 23.3384 8.77337 23.206 8.66393 23.0373C8.55448 22.8686 8.49761 22.6712 8.50053 22.4701Z" fill="#1A1C1F"/>
</g>
<defs>
<clipPath id="clip0_77_520">
<rect width="32" height="32" fill="white"/>
</clipPath>
</defs>
</svg>

<svg xmlns="http://www.w3.org/2000/svg" width="32" height="32" fill="none"><g clip-path="url(#a)"><path fill="#1A1C1F" fill-rule="evenodd" d="M8.5 22.47a.83.83 0 0 1 .229-.58l11.356-11.426h-8.59c-.456 0-1.01-.29-1.01-.934 0-.547.424-1.03 1.01-1.03H22.49c.52 0 1.009.386 1.009.837v11.008c0 .548-.456.998-1.01.998-.52 0-1.007-.386-1.007-.869v-8.626L10.226 23.21a1.015 1.015 0 0 1-1.725-.74" clip-rule="evenodd"/></g><defs><clipPath id="a"><path fill="#fff" d="M0 0h32v32H0z"/></clipPath></defs></svg>
